assets/i18n/b-ko-dk.svg

<?xml version="1.0" encoding="UTF-8"?>
<svg width="226px" height="24px" viewBox="0 0 226 24" version="1.1" xmlns="http://www.w3.org/2000/svg" xmlns:xlink="http://www.w3.org/1999/xlink">
    <!-- Generator: Sketch 51.3 (57544) - http://www.bohemiancoding.com/sketch -->
    <title>SwG-Ko Copy-Black</title>
    <desc>Created with Sketch.</desc>
    <defs></defs>
    <g id="SwG-Ko-Copy" stroke="none" stroke-width="1" fill="none" fill-rule="evenodd">
        <path d="M100.021,10.674 L81.874,10.674 L81.874,9.202 L100.021,9.202 L100.021,10.674 Z M97.997,4.28 C97.997,6.488 95.329,7.753 90.959,7.753 C86.635,7.753 83.967,6.488 83.967,4.28 C83.967,2.072 86.635,0.784 90.959,0.784 C95.329,0.784 97.997,2.072 97.997,4.28 Z M90.959,2.21 C87.808,2.21 85.761,3.015 85.761,4.28 C85.761,5.522 87.808,6.304 90.959,6.304 C94.156,6.304 96.226,5.522 96.226,4.28 C96.226,3.015 94.156,2.21 90.959,2.21 Z M98.411,20.426 L83.99,20.426 L83.99,15.642 L95.996,15.642 L95.996,13.871 L83.944,13.871 L83.944,12.468 L97.744,12.468 L97.744,16.976 L85.738,16.976 L85.738,19 L98.411,19 L98.411,20.426 Z M108.16875,2.164 C107.141412,3.3906728 106.294253,4.8434916 105.62725,6.5225 C104.960247,8.2015084 104.62675,9.89199149 104.62675,11.594 C104.62675,13.2960085 104.960247,14.9864916 105.62725,16.6655 C106.294253,18.3445084 107.141412,19.7973272 108.16875,21.024 L106.60475,22.128 C105.500744,20.8399936 104.542421,19.2798425 103.72975,17.4475 C102.917079,15.6151575 102.51075,13.6640103 102.51075,11.594 C102.51075,9.52398965 102.917079,7.57284249 103.72975,5.7405 C104.542421,3.90815751 105.500744,2.34800644 106.60475,1.06 L108.16875,2.164 Z M127.7935,11.226 L109.6465,11.226 L109.6465,9.869 L127.7935,9.869 L127.7935,11.226 Z M126.2755,20.242 L111.7395,20.242 L111.7395,15.78 L123.9065,15.78 L123.9065,14.101 L111.7625,14.101 L111.7625,12.813 L125.6545,12.813 L125.6545,17.022 L113.4875,17.022 L113.4875,18.862 L126.2755,18.862 L126.2755,20.242 Z M125.9305,8.282 L111.9465,8.282 L111.9465,4.119 L123.7915,4.119 L123.7915,2.555 L111.9235,2.555 L111.9235,1.175 L125.5395,1.175 L125.5395,5.384 L113.6945,5.384 L113.6945,6.971 L125.9305,6.971 L125.9305,8.282 Z M129.27125,2.164 L130.83525,1.06 C131.939256,2.34800644 132.897579,3.90815751 133.71025,5.7405 C134.522921,7.57284249 134.92925,9.52398965 134.92925,11.594 C134.92925,13.6640103 134.522921,15.6151575 133.71025,17.4475 C132.897579,19.2798425 131.939256,20.8399936 130.83525,22.128 L129.27125,21.024 C130.298588,19.7973272 131.145747,18.3445084 131.81275,16.6655 C132.479753,14.9864916 132.81325,13.2960085 132.81325,11.594 C132.81325,9.89199149 132.479753,8.2015084 131.81275,6.5225 C131.145747,4.8434916 130.298588,3.3906728 129.27125,2.164 Z M158.63075,9.294 L152.55875,9.294 L152.55875,11.203 L160.76975,11.203 L160.76975,12.652 L142.62275,12.652 L142.62275,11.203 L150.81075,11.203 L150.81075,9.294 L144.80775,9.294 L144.80775,1.336 L158.49275,1.336 L158.49275,2.739 L146.55575,2.739 L146.55575,4.602 L158.14775,4.602 L158.14775,5.936 L146.55575,5.936 L146.55575,7.914 L158.63075,7.914 L158.63075,9.294 Z M158.74575,17.275 C158.74575,19.437 156.28475,20.656 151.68475,20.656 C147.10775,20.656 144.66975,19.391 144.66975,17.275 C144.66975,15.182 147.10775,13.871 151.68475,13.871 C156.28475,13.871 158.74575,15.067 158.74575,17.275 Z M151.68475,15.274 C148.44175,15.274 146.44075,16.033 146.44075,17.275 C146.44075,18.517 148.44175,19.23 151.68475,19.23 C154.95075,19.23 156.97475,18.517 156.97475,17.275 C156.97475,16.033 154.95075,15.274 151.68475,15.274 Z M179.6125,20.61 L177.8875,20.61 L177.8875,10.191 L175.4725,10.191 L175.4725,19.598 L173.7705,19.598 L173.7705,0.991 L175.4725,0.991 L175.4725,8.719 L177.8875,8.719 L177.8875,0.508 L179.6125,0.508 L179.6125,20.61 Z M172.2525,12.031 C172.2525,14.446 170.4585,16.033 167.8595,16.033 C165.2835,16.033 163.4665,14.331 163.4665,12.031 C163.4665,9.593 165.2835,8.006 167.8595,8.006 C170.4585,8.006 172.2525,9.616 172.2525,12.031 Z M170.5735,12.031 C170.5735,10.49 169.4465,9.478 167.8595,9.478 C166.2725,9.478 165.1685,10.49 165.1685,12.031 C165.1685,13.595 166.2725,14.584 167.8595,14.584 C169.4465,14.584 170.5735,13.549 170.5735,12.031 Z M172.6205,6.856 L162.6155,6.856 L162.6155,5.407 L172.6205,5.407 L172.6205,6.856 Z M170.4585,3.567 L164.9615,3.567 L164.9615,2.049 L170.4585,2.049 L170.4585,3.567 Z M203.682,2.003 C203.682,4.74 203.613,7.799 202.946,10.904 L206.051,10.904 L206.051,12.376 L197.84,12.376 L197.84,20.61 L196.092,20.61 L196.092,12.376 L187.904,12.376 L187.904,10.904 L201.198,10.904 C201.75,8.742 201.865,5.43 201.865,3.452 L190.043,3.452 L190.043,2.003 L203.682,2.003 Z M223.81275,8.121 L217.87875,8.121 L217.87875,10.49 L226.08975,10.49 L226.08975,11.962 L207.94275,11.962 L207.94275,10.49 L216.13075,10.49 L216.13075,8.121 L210.31175,8.121 L210.31175,1.359 L223.76675,1.359 L223.76675,2.831 L212.05975,2.831 L212.05975,6.672 L223.81275,6.672 L223.81275,8.121 Z M210.01275,14.078 L223.72075,14.078 L223.72075,20.748 L221.97275,20.748 L221.97275,15.527 L210.01275,15.527 L210.01275,14.078 Z" id="을(를)-통해-구독" fill="#FFFFFF"></path>
        <g id="Group" fill="#FFFFFF" fill-rule="nonzero">
            <path d="M9.36714443,19 C4.27673649,19 0,14.7346939 0,9.5 C0,4.26530612 4.27673649,0 9.36714443,0 C12.185226,0 14.1896362,1.13265306 15.6979052,2.62244898 L13.92172,4.44897959 C12.8401323,3.40816327 11.3715546,2.59183673 9.36714443,2.59183673 C5.646086,2.59183673 2.73869901,5.67346939 2.73869901,9.5 C2.73869901,13.3265306 5.646086,16.4081633 9.36714443,16.4081633 C11.7783903,16.4081633 13.1477398,15.4081633 14.030871,14.5102041 C14.755237,13.7653061 15.2216097,12.7040816 15.4002205,11.244898 L9.36714443,11.244898 L9.36714443,8.64285714 L17.8610805,8.64285714 C17.9503859,9.10204082 18,9.66326531 18,10.2653061 C18,12.2142857 17.4840132,14.622449 15.8169791,16.3367347 C14.1896362,18.0714286 12.1256891,19 9.36714443,19 Z" id="Shape"></path>
            <path d="M32,13 C32,16.4557596 29.3096447,19 26,19 C22.6903553,19 20,16.4557596 20,13 C20,9.52420701 22.6903553,7 26,7 C29.3096447,7 32,9.52420701 32,13 Z M29.3705584,13 C29.3705584,10.836394 27.8071066,9.3639399 26,9.3639399 C24.1928934,9.3639399 22.6294416,10.8464107 22.6294416,13 C22.6294416,15.1335559 24.1928934,16.6360601 26,16.6360601 C27.8071066,16.6360601 29.3705584,15.1435726 29.3705584,13 Z" id="Shape"></path>
            <path d="M45,13 C45,16.4557596 42.3096447,19 39,19 C35.7005076,19 33,16.4557596 33,13 C33,9.52420701 35.6903553,7 39,7 C42.3096447,7 45,9.52420701 45,13 Z M42.3807107,13 C42.3807107,10.836394 40.8172589,9.3639399 39.0101523,9.3639399 C37.2030457,9.3639399 35.6395939,10.8464107 35.6395939,13 C35.6395939,15.1335559 37.2030457,16.6360601 39.0101523,16.6360601 C40.8172589,16.6460768 42.3807107,15.1435726 42.3807107,13 Z" id="Shape"></path>
            <path d="M57,7.3621186 L57,17.8929188 C57,22.228555 54.5013055,24 51.5430809,24 C48.7571802,24 47.0913838,22.0915371 46.45953,20.5354059 L48.6518712,19.6056419 C49.0443864,20.5647668 50.0017406,21.6902706 51.5430809,21.6902706 C53.4386423,21.6902706 54.6066144,20.4864709 54.6066144,18.2452504 L54.6066144,17.4035694 L54.5204526,17.4035694 C53.9556136,18.1180196 52.8642298,18.7345999 51.4952132,18.7345999 C48.6231506,18.7345999 46,16.1801957 46,12.8917674 C46,9.58376511 48.6327241,7 51.4952132,7 C52.8642298,7 53.9556136,7.6263673 54.5204526,8.31145653 L54.6066144,8.31145653 L54.6066144,7.3621186 L57,7.3621186 Z M54.7789382,12.9015544 C54.7789382,10.8364997 53.4290688,9.31951641 51.7154047,9.31951641 C49.97302,9.31951641 48.5178416,10.8267127 48.5178416,12.9015544 C48.5178416,14.9470351 49.97302,16.4346575 51.7154047,16.4346575 C53.4290688,16.4346575 54.7789382,14.9470351 54.7789382,12.9015544 Z" id="Shape"></path>
            <polygon id="Shape" points="63 1 63 19 60 19 60 1"></polygon>
            <path d="M72.8441203,14.9732888 L74.8896992,16.3355593 C74.2278943,17.3171953 72.633546,19 69.8760255,19 C66.4567001,19 64,16.3656093 64,13 C64,9.43405676 66.4867821,7 69.5852325,7 C72.7037375,7 74.2278943,9.47412354 74.7292616,10.8163606 L75,11.4974958 L66.9680948,14.8230384 C67.579763,16.0250417 68.5423883,16.6460768 69.8860529,16.6460768 C71.2297174,16.6460768 72.1622607,15.9749583 72.8441203,14.9732888 Z M66.5369189,12.8096828 L71.911577,10.5859766 C71.6107566,9.83472454 70.72835,9.31385643 69.6754786,9.31385643 C68.331814,9.31385643 66.4667274,10.4958264 66.5369189,12.8096828 Z" id="Shape"></path>
        </g>
    </g>
</svg>

<svg width="226" height="24" viewBox="0 0 226 24" xmlns="http://www.w3.org/2000/svg"><title>SwG-Ko-Black</title><desc>Created with Sketch.</desc><g fill="none"><path d="M100.021 10.674h-18.147v-1.472h18.147v1.472zm-2.024-6.394c0 2.208-2.668 3.473-7.038 3.473-4.324 0-6.992-1.265-6.992-3.473s2.668-3.496 6.992-3.496c4.37 0 7.038 1.288 7.038 3.496zm-7.038-2.07c-3.151 0-5.198.805-5.198 2.07 0 1.242 2.047 2.024 5.198 2.024 3.197 0 5.267-.782 5.267-2.024 0-1.265-2.07-2.07-5.267-2.07zm7.452 18.216h-14.421v-4.784h12.006v-1.771h-12.052v-1.403h13.8v4.508h-12.006v2.024h12.673v1.426zm9.758-18.262c-1.027 1.227-1.874 2.679-2.541 4.358-.667 1.679-1.001 3.369-1.001 5.071 0 1.702.333 3.392 1.001 5.072.667 1.679 1.514 3.132 2.541 4.358l-1.564 1.104c-1.104-1.288-2.062-2.848-2.875-4.68-.813-1.832-1.219-3.783-1.219-5.854 0-2.07.406-4.021 1.219-5.853.813-1.832 1.771-3.392 2.875-4.681l1.564 1.104zm19.625 9.062h-18.147v-1.357h18.147v1.357zm-1.518 9.016h-14.536v-4.462h12.167v-1.679h-12.144v-1.288h13.892v4.209h-12.167v1.84h12.788v1.38zm-.345-11.96h-13.984v-4.163h11.845v-1.564h-11.868v-1.38h13.616v4.209h-11.845v1.587h12.236v1.311zm3.341-6.118l1.564-1.104c1.104 1.288 2.062 2.848 2.875 4.681.813 1.832 1.219 3.783 1.219 5.853s-.406 4.021-1.219 5.854c-.813 1.832-1.771 3.392-2.875 4.68l-1.564-1.104c1.027-1.227 1.874-2.679 2.541-4.358.667-1.679 1.001-3.369 1.001-5.072 0-1.702-.333-3.392-1.001-5.071-.667-1.679-1.514-3.132-2.541-4.358zm29.359 7.13h-6.072v1.909h8.211v1.449h-18.147v-1.449h8.188v-1.909h-6.003v-7.958h13.685v1.403h-11.937v1.863h11.592v1.334h-11.592v1.978h12.075v1.38zm.115 7.981c0 2.162-2.461 3.381-7.061 3.381-4.577 0-7.015-1.265-7.015-3.381 0-2.093 2.438-3.404 7.015-3.404 4.6 0 7.061 1.196 7.061 3.404zm-7.061-2.001c-3.243 0-5.244.759-5.244 2.001s2.001 1.955 5.244 1.955c3.266 0 5.29-.713 5.29-1.955s-2.024-2.001-5.29-2.001zm27.928 5.336h-1.725v-10.419h-2.415v9.407h-1.702v-18.607h1.702v7.728h2.415v-8.211h1.725v20.102zm-7.36-8.579c0 2.415-1.794 4.002-4.393 4.002-2.576 0-4.393-1.702-4.393-4.002 0-2.438 1.817-4.025 4.393-4.025 2.599 0 4.393 1.61 4.393 4.025zm-1.679 0c0-1.541-1.127-2.553-2.714-2.553s-2.691 1.012-2.691 2.553c0 1.564 1.104 2.553 2.691 2.553 1.587 0 2.714-1.035 2.714-2.553zm2.047-5.175h-10.005v-1.449h10.005v1.449zm-2.162-3.289h-5.497v-1.518h5.497v1.518zm33.224-1.564c0 2.737-.069 5.796-.736 8.901h3.105v1.472h-8.211v8.234h-1.748v-8.234h-8.188v-1.472h13.294c.552-2.162.667-5.474.667-7.452h-11.822v-1.449h13.639zm20.131 6.118h-5.934v2.369h8.211v1.472h-18.147v-1.472h8.188v-2.369h-5.819v-6.762h13.455v1.472h-11.707v3.841h11.753v1.449zm-13.8 5.957h13.708v6.67h-1.748v-5.221h-11.96v-1.449z" fill="#fff"/><g fill-rule="nonzero"><path d="M9.367 19c-5.09 0-9.367-4.265-9.367-9.5s4.277-9.5 9.367-9.5c2.818 0 4.822 1.133 6.331 2.622l-1.776 1.827c-1.082-1.041-2.55-1.857-4.555-1.857-3.721 0-6.628 3.082-6.628 6.908 0 3.827 2.907 6.908 6.628 6.908 2.411 0 3.781-1 4.664-1.898.724-.745 1.191-1.806 1.369-3.265h-6.033v-2.602h8.494c.089.459.139 1.02.139 1.622 0 1.949-.516 4.357-2.183 6.071-1.627 1.735-3.691 2.663-6.45 2.663z" id="Shape" fill="#4285F4"/><path d="M32 13c0 3.456-2.69 6-6 6s-6-2.544-6-6c0-3.476 2.69-6 6-6s6 2.524 6 6zm-2.629 0c0-2.164-1.563-3.636-3.371-3.636-1.807 0-3.371 1.482-3.371 3.636 0 2.134 1.563 3.636 3.371 3.636 1.807 0 3.371-1.492 3.371-3.636z" id="Shape" fill="#E94235"/><path d="M45 13c0 3.456-2.69 6-6 6-3.299 0-6-2.544-6-6 0-3.476 2.69-6 6-6s6 2.524 6 6zm-2.619 0c0-2.164-1.563-3.636-3.371-3.636-1.807 0-3.371 1.482-3.371 3.636 0 2.134 1.563 3.636 3.371 3.636 1.807.01 3.371-1.492 3.371-3.636z" id="Shape" fill="#FABB05"/><path d="M57 7.362v10.531c0 4.336-2.499 6.107-5.457 6.107-2.786 0-4.452-1.908-5.084-3.465l2.192-.93c.393.959 1.35 2.085 2.891 2.085 1.896 0 3.064-1.204 3.064-3.445v-.842h-.086c-.565.714-1.656 1.331-3.025 1.331-2.872 0-5.495-2.554-5.495-5.843 0-3.308 2.633-5.892 5.495-5.892 1.369 0 2.46.626 3.025 1.311h.086v-.949h2.393zm-2.221 5.539c0-2.065-1.35-3.582-3.064-3.582-1.742 0-3.198 1.507-3.198 3.582 0 2.045 1.455 3.533 3.198 3.533 1.714 0 3.064-1.488 3.064-3.533z" id="Shape" fill="#4285F4"/><path id="Shape" fill="#34A853" d="M63 1v18h-3v-18z"/><path d="M72.844 14.973l2.046 1.362c-.662.982-2.256 2.664-5.014 2.664-3.419 0-5.876-2.634-5.876-6 0-3.566 2.487-6 5.585-6 3.119 0 4.643 2.474 5.144 3.816l.271.681-8.032 3.326c.612 1.202 1.574 1.823 2.918 1.823s2.276-.671 2.958-1.673zm-6.307-2.164l5.375-2.224c-.301-.751-1.183-1.272-2.236-1.272-1.344 0-3.209 1.182-3.139 3.496z" fill="#E94235"/></g></g></svg>
